;FLAVOR:UltiGCode
;TIME:5360
;MATERIAL:11130
;MATERIAL2:0
;NOZZLE_DIAMETER:0.6
;MINX:66.917
;MINY:91.589
;MINZ:0.4
;MAXX:149.775
;MAXY:131.411
;MAXZ:16.15
;Generated with Cura_SteamEngine 4.8.0
M82 ;absolute extrusion mode
G0 F3000 Y50 ;avoid prime blob
G92 E0
G92 E0
G10
;LAYER_COUNT:106
;LAYER:0
M107
G0 F3927.3 X70.079 Y93.451 Z0.4
;TYPE:SKIRT
G11
G1 F1800 X70.73 Y92.969 E0.17172
G1 X71.426 Y92.553 E0.34362
G1 X72.159 Y92.208 E0.51537
G1 X72.923 Y91.937 E0.68723
G1 X73.709 Y91.742 E0.85891
G1 X74.511 Y91.626 E1.0307
G1 X75.287 Y91.589 E1.1954
G1 X76.481 Y91.589 E1.44853
G1 X77.29 Y91.629 E1.62025
G1 X78.092 Y91.749 E1.79216
G1 X78.878 Y91.946 E1.96395
G1 X79.64 Y92.221 E2.13569
G1 X80.372 Y92.569 E2.30752
G1 X80.794 Y92.824 E2.41205
G1 X81.247 Y92.553 E2.52396
G1 X81.98 Y92.208 E2.69571
G1 X82.744 Y91.937 E2.86756
G1 X83.53 Y91.742 E3.03925
G1 X84.332 Y91.626 E3.21104
G1 X85.108 Y91.589 E3.37574
G1 X86.458 Y91.589 E3.66194
G1 X87.267 Y91.629 E3.83366
G1 X88.069 Y91.749 E4.00557
G1 X88.855 Y91.946 E4.17736
G1 X89.617 Y92.221 E4.3491
G1 X90.349 Y92.569 E4.52093
G1 X90.768 Y92.822 E4.62469
G1 X90.882 Y92.746 E4.65374
G1 X91.598 Y92.366 E4.82559
G1 X92.348 Y92.058 E4.99747
G1 X93.124 Y91.826 E5.16918
G1 X93.92 Y91.672 E5.34106
G1 X95.085 Y91.589 E5.58866
G1 X131.321 Y91.589 E13.2707
G1 X132.13 Y91.629 E13.44241
G1 X132.932 Y91.749 E13.61433
G1 X133.718 Y91.946 E13.78612
G1 X134.48 Y92.221 E13.95786
G1 X135.212 Y92.569 E14.12969
G1 X135.634 Y92.824 E14.23422
G1 X136.087 Y92.553 E14.34613
G1 X136.82 Y92.208 E14.51787
G1 X137.584 Y91.937 E14.68973
G1 X138.37 Y91.742 E14.86141
G1 X139.172 Y91.626 E15.03321
G1 X139.948 Y91.589 E15.1979
G1 X141.404 Y91.589 E15.50658
G1 X142.213 Y91.629 E15.67829
G1 X143.015 Y91.749 E15.85021
G1 X143.801 Y91.946 E16.022
G1 X144.563 Y92.221 E16.19374
G1 X145.295 Y92.569 E16.36557
G1 X145.989 Y92.988 E16.53743
G1 X146.639 Y93.473 E16.70936
G1 X147.213 Y93.995 E16.87385
G1 X147.368 Y94.15 E16.92032
G1 X147.912 Y94.751 E17.09217
G1 X148.394 Y95.402 E17.2639
G1 X148.81 Y96.098 E17.4358
G1 X149.155 Y96.831 E17.60754
G1 X149.426 Y97.595 E17.7794
G1 X149.621 Y98.381 E17.95108
G1 X149.737 Y99.183 E18.12288
G1 X149.774 Y99.959 E18.28757
G1 X149.775 Y123.041 E23.18096
G1 X149.735 Y123.85 E23.35268
G1 X149.616 Y124.652 E23.52456
G1 X149.418 Y125.438 E23.6964
G1 X149.143 Y126.2 E23.86814
G1 X148.795 Y126.932 E24.03997
G1 X148.377 Y127.626 E24.21172
G1 X147.892 Y128.275 E24.38349
G1 X147.369 Y128.85 E24.54827
G1 X147.214 Y129.005 E24.59474
G1 X146.613 Y129.549 E24.7666
G1 X145.962 Y130.031 E24.93832
G1 X145.266 Y130.447 E25.11022
G1 X144.533 Y130.792 E25.28197
G1 X143.769 Y131.063 E25.45382
G1 X142.983 Y131.258 E25.62551
G1 X142.181 Y131.374 E25.7973
G1 X141.405 Y131.411 E25.962
G1 X139.949 Y131.411 E26.27067
G1 X139.14 Y131.371 E26.44239
G1 X138.338 Y131.251 E26.6143
G1 X137.552 Y131.054 E26.78609
G1 X136.79 Y130.779 E26.95783
G1 X136.058 Y130.431 E27.12966
G1 X135.639 Y130.178 E27.23343
G1 X135.525 Y130.254 E27.26247
G1 X134.809 Y130.634 E27.43432
G1 X134.059 Y130.942 E27.6062
G1 X133.283 Y131.174 E27.77791
G1 X132.487 Y131.328 E27.94979
G1 X131.322 Y131.411 E28.1974
G1 X95.085 Y131.411 E35.87964
G1 X94.276 Y131.371 E36.05136
G1 X93.474 Y131.251 E36.22327
G1 X92.688 Y131.054 E36.39506
G1 X91.926 Y130.779 E36.5668
G1 X91.194 Y130.431 E36.73863
G1 X90.772 Y130.176 E36.84316
G1 X90.319 Y130.447 E36.95507
G1 X89.586 Y130.792 E37.12682
G1 X88.822 Y131.063 E37.29867
G1 X88.036 Y131.258 E37.47036
G1 X87.234 Y131.374 E37.64215
G1 X86.458 Y131.411 E37.80685
G1 X85.11 Y131.411 E38.09262
G1 X84.301 Y131.371 E38.26434
G1 X83.499 Y131.251 E38.43626
G1 X82.713 Y131.054 E38.60804
G1 X81.951 Y130.779 E38.77979
G1 X81.219 Y130.431 E38.95161
G1 X80.8 Y130.178 E39.05538
G1 X80.688 Y130.253 E39.08396
G1 X79.973 Y130.633 E39.25561
G1 X79.223 Y130.941 E39.4275
G1 X78.446 Y131.173 E39.59941
G1 X77.651 Y131.328 E39.77112
G1 X76.483 Y131.411 E40.01936
G1 X75.287 Y131.411 E40.27292
G1 X74.478 Y131.371 E40.44463
G1 X73.676 Y131.251 E40.61655
G1 X72.89 Y131.054 E40.78834
G1 X72.128 Y130.779 E40.96008
G1 X71.396 Y130.431 E41.13191
G1 X70.702 Y130.012 E41.30377
G1 X70.052 Y129.527 E41.4757
G1 X69.478 Y129.005 E41.64018
G1 X69.323 Y128.85 E41.68666
G1 X68.779 Y128.249 E41.85851
G1 X68.297 Y127.598 E42.03023
G1 X67.881 Y126.902 E42.20213
G1 X67.536 Y126.169 E42.37388
G1 X67.265 Y125.405 E42.54574
G1 X67.07 Y124.619 E42.71742
G1 X66.954 Y123.817 E42.88921
G1 X66.917 Y123.041 E43.05391
G1 X66.917 Y120.967 E43.4936
G1 X66.957 Y120.158 E43.66532
G1 X67.077 Y119.356 E43.83724
G1 X67.274 Y118.57 E44.00902
G1 X67.549 Y117.808 E44.18076
G1 X67.897 Y117.076 E44.35259
G1 X68.316 Y116.382 E44.52446
G1 X68.801 Y115.732 E44.69639
G1 X69.323 Y115.158 E44.86087
G1 X69.478 Y115.003 E44.90734
G1 X70.079 Y114.459 E45.0792
G1 X70.73 Y113.977 E45.25092
G1 X71.426 Y113.561 E45.42282
G1 X72.159 Y113.216 E45.59457
G1 X72.923 Y112.945 E45.76642
G1 X73.709 Y112.75 E45.93811
G1 X74.511 Y112.634 E46.1099
G1 X75.287 Y112.597 E46.2746
G1 X76.475 Y112.597 E46.52646
G1 X76.739 Y112.61 E46.58249
G1 X76.739 Y110.022 E47.13115
G1 X76.473 Y110.034 E47.1876
G1 X75.287 Y110.034 E47.43903
G1 X74.478 Y109.994 E47.61075
G1 X73.676 Y109.874 E47.78266
G1 X72.89 Y109.677 E47.95445
G1 X72.128 Y109.402 E48.12619
G1 X71.396 Y109.054 E48.29802
G1 X70.702 Y108.635 E48.46988
G1 X70.052 Y108.15 E48.64182
G1 X69.478 Y107.628 E48.8063
G1 X69.323 Y107.473 E48.85277
G1 X68.779 Y106.872 E49.02462
G1 X68.297 Y106.221 E49.19635
G1 X67.881 Y105.525 E49.36825
G1 X67.536 Y104.792 E49.54
G1 X67.265 Y104.028 E49.71185
G1 X67.07 Y103.242 E49.88353
G1 X66.954 Y102.44 E50.05533
G1 X66.917 Y101.664 E50.22003
G1 X66.917 Y99.959 E50.58149
G1 X66.957 Y99.15 E50.7532
G1 X67.077 Y98.348 E50.92512
G1 X67.274 Y97.562 E51.09691
G1 X67.549 Y96.8 E51.26865
G1 X67.897 Y96.068 E51.44048
G1 X68.316 Y95.374 E51.61234
G1 X68.801 Y94.724 E51.78427
G1 X69.323 Y94.15 E51.94876
G1 X69.478 Y93.995 E51.99523
G1 X70.079 Y93.451 E52.16708
G0 F3927.3 X70.435 Y93.845
G1 F1800 X71.067 Y93.381 E52.3333
G1 X71.743 Y92.985 E52.49939
G1 X72.456 Y92.659 E52.6656
G1 X73.199 Y92.408 E52.83186
G1 X73.963 Y92.234 E52.99797
G1 X74.741 Y92.138 E53.16416
G1 X75.287 Y92.119 E53.27998
G1 X76.481 Y92.119 E53.53311
G1 X77.264 Y92.159 E53.69932
G1 X78.038 Y92.278 E53.86534
G1 X78.797 Y92.476 E54.03163
G1 X79.531 Y92.75 E54.19773
G1 X80.234 Y93.098 E54.36403
G1 X80.794 Y93.45 E54.50425
G1 X80.888 Y93.381 E54.52897
G1 X81.564 Y92.985 E54.69506
G1 X82.277 Y92.659 E54.86127
G1 X83.02 Y92.408 E55.02753
G1 X83.784 Y92.234 E55.19365
G1 X84.562 Y92.138 E55.35983
G1 X85.108 Y92.119 E55.47565
G1 X86.458 Y92.119 E55.76185
G1 X87.241 Y92.159 E55.92807
G1 X88.015 Y92.278 E56.09408
G1 X88.774 Y92.476 E56.26038
G1 X89.508 Y92.75 E56.42647
G1 X90.211 Y93.098 E56.59277
G1 X90.768 Y93.448 E56.73223
G1 X91.399 Y93.061 E56.88916
G1 X92.105 Y92.72 E57.05537
G1 X92.842 Y92.454 E57.22148
G1 X93.602 Y92.263 E57.38761
G1 X94.378 Y92.152 E57.5538
G1 X95.085 Y92.119 E57.70385
G1 X131.321 Y92.119 E65.38588
G1 X132.104 Y92.159 E65.55209
G1 X132.878 Y92.278 E65.71811
G1 X133.637 Y92.476 E65.8844
G1 X134.371 Y92.75 E66.0505
G1 X135.074 Y93.098 E66.21679
G1 X135.634 Y93.45 E66.35702
G1 X135.728 Y93.381 E66.38174
G1 X136.404 Y92.985 E66.54783
G1 X137.117 Y92.659 E66.71404
G1 X137.86 Y92.408 E66.8803
G1 X138.624 Y92.234 E67.04641
G1 X139.402 Y92.138 E67.2126
G1 X139.948 Y92.119 E67.32842
G1 X141.404 Y92.119 E67.6371
G1 X142.187 Y92.159 E67.80331
G1 X142.961 Y92.278 E67.96932
G1 X143.72 Y92.476 E68.13562
G1 X144.454 Y92.75 E68.30171
G1 X145.157 Y93.098 E68.46801
G1 X145.821 Y93.515 E68.63424
G1 X146.438 Y93.997 E68.80022
G1 X146.838 Y94.37 E68.91617
G1 X146.993 Y94.525 E68.96264
G1 X147.518 Y95.107 E69.12881
G1 X147.982 Y95.739 E69.29502
G1 X148.378 Y96.415 E69.46112
G1 X148.704 Y97.128 E69.62732
G1 X148.955 Y97.871 E69.79358
G1 X149.129 Y98.635 E69.9597
G1 X149.225 Y99.413 E70.12589
G1 X149.244 Y99.959 E70.24171
G1 X149.245 Y123.041 E75.13509
G1 X149.205 Y123.823 E75.30109
G1 X149.086 Y124.598 E75.46732
G1 X148.888 Y125.357 E75.63361
G1 X148.614 Y126.091 E75.79971
G1 X148.266 Y126.794 E75.966
G1 X147.849 Y127.457 E76.13205
G1 X147.367 Y128.075 E76.2982
G1 X146.994 Y128.475 E76.41415
G1 X146.839 Y128.63 E76.46062
G1 X146.257 Y129.155 E76.62679
G1 X145.625 Y129.619 E76.79301
G1 X144.949 Y130.015 E76.9591
G1 X144.236 Y130.341 E77.1253
G1 X143.493 Y130.592 E77.29156
G1 X142.729 Y130.766 E77.45768
G1 X141.951 Y130.862 E77.62387
G1 X141.405 Y130.881 E77.73969
G1 X139.949 Y130.881 E78.04836
G1 X139.166 Y130.841 E78.21457
G1 X138.392 Y130.722 E78.38059
G1 X137.633 Y130.524 E78.54688
G1 X136.899 Y130.25 E78.71298
G1 X136.196 Y129.902 E78.87928
G1 X135.639 Y129.552 E79.01874
G1 X135.008 Y129.939 E79.17566
G1 X134.302 Y130.28 E79.34188
G1 X133.565 Y130.546 E79.50799
G1 X132.805 Y130.737 E79.67412
G1 X132.029 Y130.848 E79.84031
G1 X131.322 Y130.881 E79.99035
G1 X95.085 Y130.881 E87.6726
G1 X94.302 Y130.841 E87.83881
G1 X93.528 Y130.722 E88.00483
G1 X92.769 Y130.524 E88.17112
G1 X92.035 Y130.25 E88.33722
G1 X91.332 Y129.902 E88.50351
G1 X90.772 Y129.55 E88.64374
G1 X90.678 Y129.619 E88.66846
G1 X90.002 Y130.015 E88.83455
G1 X89.289 Y130.341 E89.00076
G1 X88.546 Y130.592 E89.16702
G1 X87.782 Y130.766 E89.33313
G1 X87.004 Y130.862 E89.49932
G1 X86.458 Y130.881 E89.61514
G1 X85.11 Y130.881 E89.90092
G1 X84.327 Y130.841 E90.06713
G1 X83.553 Y130.722 E90.23315
G1 X82.794 Y130.524 E90.39944
G1 X82.06 Y130.25 E90.56554
G1 X81.357 Y129.902 E90.73183
G1 X80.799 Y129.552 E90.87147
G1 X80.171 Y129.938 E91.02775
G1 X79.465 Y130.279 E91.19396
G1 X78.728 Y130.546 E91.36015
G1 X77.968 Y130.736 E91.52622
G1 X77.192 Y130.848 E91.69244
G1 X76.483 Y130.881 E91.84291
G1 X75.287 Y130.881 E92.09646
G1 X74.504 Y130.841 E92.26268
G1 X73.73 Y130.722 E92.42869
G1 X72.971 Y130.524 E92.59499
G1 X72.237 Y130.25 E92.76108
G1 X71.534 Y129.902 E92.92738
G1 X70.87 Y129.485 E93.0936
G1 X70.253 Y129.003 E93.25959
G1 X69.853 Y128.63 E93.37554
G1 X69.698 Y128.475 E93.42201
G1 X69.173 Y127.893 E93.58818
G1 X68.709 Y127.261 E93.75439
G1 X68.313 Y126.585 E93.92048
G1 X67.987 Y125.872 E94.08669
G1 X67.736 Y125.129 E94.25295
G1 X67.562 Y124.365 E94.41907
G1 X67.466 Y123.587 E94.58525
G1 X67.447 Y123.041 E94.70108
G1 X67.447 Y120.967 E95.14076
G1 X67.487 Y120.184 E95.30698
G1 X67.606 Y119.41 E95.47299
G1 X67.804 Y118.651 E95.63929
G1 X68.078 Y117.917 E95.80538
G1 X68.426 Y117.214 E95.97168
G1 X68.843 Y116.55 E96.1379
G1 X69.325 Y115.933 E96.30389
G1 X69.698 Y115.533 E96.41984
G1 X69.853 Y115.378 E96.46631
G1 X70.435 Y114.853 E96.63248
G1 X71.067 Y114.389 E96.79869
G1 X71.743 Y113.993 E96.96478
G1 X72.456 Y113.667 E97.13099
G1 X73.199 Y113.416 E97.29725
G1 X73.963 Y113.242 E97.46337
G1 X74.741 Y113.146 E97.62955
G1 X75.287 Y113.127 E97.74538
G1 X76.475 Y113.127 E97.99723
G1 X77.258 Y113.167 E98.16344
G1 X77.269 Y113.169 E98.16581
G1 X77.269 Y109.447 E98.95488
G1 X76.473 Y109.504 E99.12406
G1 X75.287 Y109.504 E99.3755
G1 X74.504 Y109.464 E99.54171
G1 X73.73 Y109.345 E99.70772
G1 X72.971 Y109.147 E99.87402
G1 X72.237 Y108.873 E100.04011
G1 X71.534 Y108.525 E100.20641
G1 X70.87 Y108.108 E100.37264
G1 X70.253 Y107.626 E100.53862
G1 X69.853 Y107.253 E100.65457
G1 X69.698 Y107.098 E100.70104
G1 X69.173 Y106.516 E100.86721
G1 X68.709 Y105.884 E101.03342
G1 X68.313 Y105.208 E101.19951
G1 X67.987 Y104.495 E101.36572
G1 X67.736 Y103.752 E101.53198
G1 X67.562 Y102.988 E101.6981
G1 X67.466 Y102.21 E101.86429
G1 X67.447 Y101.664 E101.98011
G1 X67.447 Y99.959 E102.34157
G1 X67.487 Y99.176 E102.50778
G1 X67.606 Y98.402 E102.6738
G1 X67.804 Y97.643 E102.84009
G1 X68.078 Y96.909 E103.00619
G1 X68.426 Y96.206 E103.17248
G1 X68.843 Y95.542 E103.33871
G1 X69.325 Y94.925 E103.50469
G1 X69.698 Y94.525 E103.62064
G1 X69.853 Y94.37 E103.66711
G1 X70.435 Y93.845 E103.83328
G0 F3927.3 X70.79 Y94.239
G1 F1800 X71.403 Y93.795 E103.99374
G1 X72.058 Y93.419 E104.15386
G1 X72.75 Y93.114 E104.31418
G1 X73.471 Y92.883 E104.47468
G1 X74.212 Y92.73 E104.63509
G1 X75.287 Y92.649 E104.86363
G1 X76.481 Y92.649 E105.11676
G1 X77.236 Y92.689 E105.27705
G1 X77.983 Y92.808 E105.43741
G1 X78.713 Y93.006 E105.59776
G1 X79.418 Y93.28 E105.75811
G1 X80.09 Y93.626 E105.91835
G1 X80.722 Y94.042 E106.07875
G1 X80.797 Y94.104 E106.09938
G1 X81.224 Y93.795 E106.21112
G1 X81.879 Y93.419 E106.37124
G1 X82.571 Y93.114 E106.53156
G1 X83.292 Y92.883 E106.69206
G1 X84.033 Y92.73 E106.85247
G1 X85.108 Y92.649 E107.08102
G1 X86.458 Y92.649 E107.36722
G1 X87.213 Y92.689 E107.5275
G1 X87.96 Y92.808 E107.68786
G1 X88.69 Y93.006 E107.84821
G1 X89.395 Y93.28 E108.00856
G1 X90.067 Y93.626 E108.1688
G1 X90.699 Y94.042 E108.32921
G1 X90.772 Y94.104 E108.34951
G1 X91.253 Y93.762 E108.47463
G1 X91.912 Y93.391 E108.63496
G1 X92.607 Y93.092 E108.79535
G1 X93.329 Y92.868 E108.95562
G1 X94.071 Y92.721 E109.11598
G1 X95.085 Y92.649 E109.33149
G1 X131.321 Y92.649 E117.01352
G1 X132.076 Y92.689 E117.1738
G1 X132.823 Y92.808 E117.33416
G1 X133.553 Y93.006 E117.49452
G1 X134.258 Y93.28 E117.65487
G1 X134.93 Y93.626 E117.81511
G1 X135.562 Y94.042 E117.97551
G1 X135.637 Y94.104 E117.99614
G1 X136.064 Y93.795 E118.10788
G1 X136.719 Y93.419 E118.26799
G1 X137.411 Y93.114 E118.42831
G1 X138.132 Y92.883 E118.58882
G1 X138.873 Y92.73 E118.74922
G1 X139.948 Y92.649 E118.97777
G1 X141.404 Y92.649 E119.28644
G1 X142.159 Y92.689 E119.44673
G1 X142.906 Y92.808 E119.60709
G1 X143.636 Y93.006 E119.76744
G1 X144.341 Y93.28 E119.92779
G1 X145.013 Y93.626 E120.08803
G1 X145.645 Y94.042 E120.24843
G1 X146.463 Y94.745 E120.47709
G1 X146.618 Y94.9 E120.52356
G1 X147.124 Y95.462 E120.68388
G1 X147.568 Y96.075 E120.84435
G1 X147.944 Y96.73 E121.00446
G1 X148.249 Y97.422 E121.16478
G1 X148.48 Y98.143 E121.32529
G1 X148.633 Y98.884 E121.48569
G1 X148.714 Y99.959 E121.71424
G1 X148.715 Y123.041 E126.60762
G1 X148.675 Y123.796 E126.76791
G1 X148.556 Y124.543 E126.92827
G1 X148.358 Y125.273 E127.08862
G1 X148.084 Y125.978 E127.24897
G1 X147.738 Y126.65 E127.40921
G1 X147.323 Y127.282 E127.5695
G1 X146.619 Y128.1 E127.7983
G1 X146.464 Y128.255 E127.84477
G1 X145.902 Y128.761 E128.00509
G1 X145.289 Y129.205 E128.16555
G1 X144.634 Y129.581 E128.32566
G1 X143.942 Y129.886 E128.48598
G1 X143.221 Y130.117 E128.64649
G1 X142.48 Y130.27 E128.8069
G1 X141.405 Y130.351 E129.03544
G1 X139.949 Y130.351 E129.34411
G1 X139.194 Y130.311 E129.5044
G1 X138.447 Y130.192 E129.66476
G1 X137.717 Y129.994 E129.82511
G1 X137.012 Y129.72 E129.98546
G1 X136.34 Y129.374 E130.1457
G1 X135.708 Y128.958 E130.30611
G1 X135.635 Y128.896 E130.32641
G1 X135.154 Y129.238 E130.45153
G1 X134.495 Y129.609 E130.61186
G1 X133.8 Y129.908 E130.77225
G1 X133.078 Y130.132 E130.93251
G1 X132.336 Y130.279 E131.09288
G1 X131.322 Y130.351 E131.30838
G1 X95.085 Y130.351 E138.99063
G1 X94.33 Y130.311 E139.15091
G1 X93.583 Y130.192 E139.31127
G1 X92.853 Y129.994 E139.47163
G1 X92.148 Y129.72 E139.63198
G1 X91.476 Y129.374 E139.79222
G1 X90.844 Y128.958 E139.95262
G1 X90.769 Y128.896 E139.97325
G1 X90.342 Y129.205 E140.08499
G1 X89.687 Y129.581 E140.2451
G1 X88.995 Y129.886 E140.40542
G1 X88.274 Y130.117 E140.56593
G1 X87.533 Y130.27 E140.72634
G1 X86.458 Y130.351 E140.95488
G1 X85.11 Y130.351 E141.24066
G1 X84.355 Y130.311 E141.40094
G1 X83.608 Y130.192 E141.5613
G1 X82.878 Y129.994 E141.72165
G1 X82.173 Y129.72 E141.88201
G1 X81.501 Y129.374 E142.04224
G1 X80.869 Y128.958 E142.20265
G1 X80.797 Y128.896 E142.22279
G1 X80.317 Y129.237 E142.34762
G1 X79.658 Y129.608 E142.50794
G1 X78.963 Y129.907 E142.66834
G1 X78.241 Y130.132 E142.82866
G1 X77.499 Y130.278 E142.98898
G1 X76.483 Y130.351 E143.20493
G1 X75.287 Y130.351 E143.45848
G1 X74.532 Y130.311 E143.61877
G1 X73.785 Y130.192 E143.77913
G1 X73.055 Y129.994 E143.93948
G1 X72.35 Y129.72 E144.09983
G1 X71.678 Y129.374 E144.26007
G1 X71.046 Y128.958 E144.42047
G1 X70.228 Y128.255 E144.64913
G1 X70.073 Y128.1 E144.6956
G1 X69.567 Y127.538 E144.85592
G1 X69.123 Y126.925 E145.01639
G1 X68.747 Y126.27 E145.1765
G1 X68.442 Y125.578 E145.33682
G1 X68.211 Y124.857 E145.49733
G1 X68.058 Y124.116 E145.65773
